X: 118
T: Shoe the Donkey
M: 3/4
L: 1/4
R: Mazurka
K: G
D/G/|BB D/G/|BB D/G/|BcB|
A2 D/F/|AA D/F/|AA D/F/|ABA|G2 :|
B/c/|dgf|A2 A/B/|ced|B2 B/c/|BAB|
c2 c/d/|edc|B2B/c/|dgf|A2 A/B/|
ced|B2 B/c/|BAB|c2 c/d/|edF|G2 ||
